build/assets/images/proyectos/logos/fichas/logo-sm.svg

<svg width="201" height="86" viewBox="0 0 201 86" fill="none" xmlns="http://www.w3.org/2000/svg">
<g clip-path="url(#clip0)">
<path d="M5.37755 85.6818C4.94897 85.5866 4.47278 85.4913 4.04421 85.3485C2.28231 84.7294 1.04421 83.1104 0.948975 81.2532C0.948975 81.0151 0.948975 80.7771 0.948975 80.539C0.948975 63.0151 0.948975 45.4437 0.948975 27.9199C0.948975 24.6818 2.09183 21.9199 4.37755 19.5866C9.47278 14.4913 14.568 9.34848 19.7109 4.30086C21.949 2.06277 24.6633 0.967529 27.8537 0.967529C31.2823 0.967529 34.6633 0.967529 38.0918 0.967529C52.3775 0.967529 66.6633 0.967529 80.9014 0.967529C83.6633 0.967529 85.6633 2.96753 85.6633 5.72943C85.6633 23.3961 85.6633 41.1104 85.6633 58.777C85.6633 61.8723 84.5204 64.5866 82.3299 66.8247C77.2823 71.8723 72.2347 76.9199 67.1871 82.0151C64.9966 84.2056 62.3299 85.4437 59.2347 85.539C59.1394 85.539 59.0442 85.5866 58.949 85.6342C41.0442 85.6818 23.2347 85.6818 5.37755 85.6818ZM33.1394 68.6818C33.3775 68.4913 33.4728 68.3485 33.568 68.2532C38.9966 62.8247 44.4728 57.3485 49.9014 51.9199C52.6633 49.158 55.4252 46.3961 58.1871 43.6342C58.4728 43.3485 58.5204 43.2056 58.1871 42.9199C49.949 34.6818 41.7109 26.4437 33.4252 18.2532C33.3299 18.158 33.2347 18.0628 33.0918 17.9199C33.1394 34.8723 33.1394 51.7294 33.1394 68.6818Z" fill="white"/>
<path d="M200.711 65.2048C197.377 65.2048 194.044 65.2048 190.711 65.2048C190.52 65.2048 190.33 65.2048 190.139 65.2048C190.139 65.0143 190.139 64.8238 190.139 64.681C190.139 57.3953 190.139 50.1096 190.139 42.8238C190.139 41.6334 189.996 40.4905 189.425 39.4429C188.425 37.5858 186.806 36.7286 184.758 36.6334C182.139 36.5381 180.044 37.6334 178.139 39.3C177.472 39.8715 177.234 40.4429 177.234 41.3C177.282 49.0619 177.234 56.8238 177.234 64.5857C177.234 64.7762 177.234 64.9667 177.234 65.1572C177.044 65.1572 176.901 65.1572 176.758 65.1572C173.52 65.1572 170.33 65.1572 167.092 65.1572C166.711 65.1572 166.568 65.0619 166.568 64.6334C166.568 57.2524 166.568 49.8239 166.568 42.4429C166.568 41.1096 166.282 39.8715 165.52 38.8239C164.472 37.3477 162.996 36.681 161.187 36.5858C158.806 36.4905 156.758 37.4429 154.996 38.9191C154.377 39.4429 153.806 40.0619 153.282 40.6334C153.139 40.8238 152.996 41.1096 152.996 41.3477C152.996 49.0619 152.996 56.7762 152.996 64.4905C152.996 64.681 152.996 64.8238 152.996 65.0619C149.425 65.0619 145.901 65.0619 142.33 65.0619C142.33 52.8238 142.33 40.6334 142.33 28.3953C145.472 28.3953 148.568 28.3953 151.758 28.3953C151.758 29.7762 151.758 31.1096 151.758 32.5381C152.33 32.0143 152.853 31.4905 153.377 31.0143C157.425 27.7286 161.996 26.6334 167.092 27.681C170.187 28.3477 172.663 29.9191 174.52 32.4905C174.568 32.5381 174.568 32.5858 174.615 32.6334C174.615 32.6334 174.615 32.6334 174.663 32.681C175.187 32.2524 175.711 31.7762 176.234 31.3C178.52 29.4429 181.092 28.1096 183.996 27.5858C187.711 26.9191 191.282 27.3 194.52 29.3C197.187 30.9667 198.853 33.3953 199.711 36.3477C200.092 37.5381 200.234 38.7762 200.473 40.0143C200.473 40.1096 200.52 40.2048 200.568 40.3477C200.711 48.7286 200.711 56.9667 200.711 65.2048Z" fill="white"/>
<path d="M135.996 39.2049C134.711 38.5858 133.52 37.9192 132.282 37.443C129.044 36.1573 125.711 35.443 122.234 35.6335C121.234 35.6811 120.282 35.8716 119.425 36.3477C117.854 37.2525 117.615 38.9668 118.901 40.2525C119.758 41.1097 120.901 41.5858 122.044 41.9668C124.044 42.6335 126.044 43.2049 128.044 43.8239C130.377 44.5382 132.663 45.3954 134.663 46.8716C137.377 48.8239 138.758 51.4906 138.806 54.8239C138.806 56.9192 138.425 58.8716 137.282 60.6811C136.044 62.5858 134.33 63.7763 132.282 64.6334C130.187 65.5382 127.949 66.0144 125.663 66.1573C123.711 66.2525 121.758 66.3477 119.854 66.2525C115.711 66.062 111.711 65.1573 107.996 63.2049C107.615 63.0144 107.473 62.7763 107.473 62.3477C107.473 59.7763 107.473 57.2049 107.473 54.5858C107.473 54.443 107.473 54.3001 107.473 54.1097C107.615 54.1573 107.711 54.2049 107.758 54.2525C110.425 55.9192 113.377 56.8715 116.425 57.4906C118.711 57.9192 120.996 58.1097 123.33 57.9192C124.33 57.8239 125.377 57.7287 126.33 57.3001C128.092 56.5382 128.425 54.7763 126.996 53.4906C126.234 52.7763 125.33 52.3477 124.33 52.0144C122.092 51.2525 119.806 50.5858 117.568 49.8239C115.33 49.062 113.092 48.2049 111.187 46.7763C108.187 44.5858 106.949 41.6335 107.187 38.0144C107.33 35.5858 108.092 33.443 109.806 31.6811C111.187 30.2049 112.901 29.2525 114.806 28.6335C117.425 27.7287 120.139 27.443 122.901 27.4906C127.33 27.5382 131.568 28.5382 135.615 30.3954C135.996 30.5858 136.139 30.7763 136.139 31.2049C136.092 33.7763 136.139 36.3477 136.139 38.9192C135.996 38.9192 135.996 39.062 135.996 39.2049Z" fill="white"/>
</g>
<defs>
<clipPath id="clip0">
<rect width="200" height="85.2381" fill="white" transform="translate(0.853516 0.680908)"/>
</clipPath>
</defs>
</svg>

<svg width="201" height="86" fill="none" xmlns="http://www.w3.org/2000/svg"><g clip-path="url(#clip0)" fill="#fff"><path d="M5.378 85.682c-.429-.095-.905-.19-1.334-.334-1.762-.619-3-2.238-3.095-4.095V27.919c0-3.237 1.143-6 3.429-8.332C9.473 14.49 14.568 9.348 19.71 4.3 21.949 2.063 24.663.968 27.854.968h53.048c2.761 0 4.761 2 4.761 4.761v53.048c0 3.095-1.143 5.81-3.333 8.048a4563.278 4563.278 0 00-15.143 15.19c-2.19 2.19-4.857 3.429-7.952 3.524-.096 0-.19.048-.286.095-17.905.048-35.714.048-53.571.048zm27.761-17c.238-.19.334-.334.429-.429L49.901 51.92l8.286-8.286c.286-.285.333-.428 0-.714-8.238-8.238-16.476-16.476-24.762-24.667l-.333-.333c.047 16.952.047 33.81.047 50.762zm167.572-3.477h-10.572V42.824c0-1.19-.143-2.334-.714-3.381-1-1.857-2.619-2.714-4.667-2.81-2.619-.095-4.714 1-6.619 2.667-.667.572-.905 1.143-.905 2 .048 7.762 0 15.524 0 23.286v.571h-10.142c-.381 0-.524-.095-.524-.524v-22.19c0-1.333-.286-2.572-1.048-3.62-1.048-1.475-2.524-2.142-4.333-2.237-2.381-.096-4.429.857-6.191 2.333-.619.524-1.19 1.143-1.714 1.714-.143.19-.286.477-.286.715v23.714H142.33V28.395h9.428v4.143c.572-.524 1.095-1.047 1.619-1.524 4.048-3.285 8.619-4.38 13.715-3.333 3.095.667 5.571 2.238 7.428 4.81.048.047.048.095.095.142l.048.048a40.056 40.056 0 001.571-1.381c2.286-1.857 4.858-3.19 7.762-3.714 3.715-.667 7.286-.286 10.524 1.714 2.667 1.667 4.333 4.095 5.191 7.048.381 1.19.523 2.428.762 3.666 0 .096.047.19.095.334.143 8.38.143 16.619.143 24.857zm-64.715-26c-1.285-.62-2.476-1.286-3.714-1.762-3.238-1.286-6.571-2-10.048-1.81-1 .048-1.952.239-2.809.715-1.571.904-1.81 2.619-.524 3.904.857.858 2 1.334 3.143 1.715 2 .666 4 1.238 6 1.857 2.333.714 4.619 1.571 6.619 3.048 2.714 1.952 4.095 4.619 4.143 7.952 0 2.095-.381 4.048-1.524 5.857-1.238 1.905-2.952 3.095-5 3.952-2.095.905-4.333 1.381-6.619 1.524-1.952.096-3.905.19-5.809.096-4.143-.191-8.143-1.096-11.858-3.048-.381-.19-.523-.429-.523-.857V54.11c.142.047.238.095.285.142 2.667 1.667 5.619 2.62 8.667 3.239 2.286.428 4.571.619 6.905.428 1-.095 2.047-.19 3-.619 1.762-.762 2.095-2.524.666-3.81-.762-.714-1.666-1.142-2.666-1.476-2.238-.762-4.524-1.428-6.762-2.19-2.238-.762-4.476-1.62-6.381-3.048-3-2.19-4.238-5.143-4-8.762.143-2.428.905-4.571 2.619-6.333 1.381-1.476 3.095-2.428 5-3.047 2.619-.905 5.333-1.191 8.095-1.143 4.429.047 8.667 1.047 12.714 2.904.381.19.524.381.524.81-.047 2.571 0 5.143 0 7.714-.143 0-.143.143-.143.286z"/></g><defs><clipPath id="clip0"><path fill="#fff" transform="translate(.854 .68)" d="M0 0h200v85.238H0z"/></clipPath></defs></svg>
